dist/svg/v_by_visa.svg

<svg xmlns="http://www.w3.org/2000/svg" xmlns:xlink="http://www.w3.org/1999/xlink" width="53" height="27" viewBox="0 0 53 27">
  <defs>
    <polygon id="v_by_visa-a" points="0 26.872 52.748 26.872 52.748 0 0 0"/>
    <polygon id="v_by_visa-c" points="0 26.872 52.748 26.872 52.748 0 0 0"/>
    <polygon id="v_by_visa-e" points="0 26.872 52.748 26.872 52.748 0 0 0"/>
    <polygon id="v_by_visa-g" points="0 26.872 52.748 26.872 52.748 0 0 0"/>
    <polygon id="v_by_visa-i" points="0 26.872 52.748 26.872 52.748 0 0 0"/>
    <polygon id="v_by_visa-k" points="0 26.872 52.748 26.872 52.748 0 0 0"/>
    <polygon id="v_by_visa-m" points="0 26.872 52.748 26.872 52.748 0 0 0"/>
    <polygon id="v_by_visa-o" points="0 26.872 52.748 26.872 52.748 0 0 0"/>
    <polygon id="v_by_visa-q" points="0 26.872 52.748 26.872 52.748 0 0 0"/>
    <polygon id="v_by_visa-s" points="0 26.872 52.748 26.872 52.748 0 0 0"/>
    <polygon id="v_by_visa-u" points="0 26.872 52.748 26.872 52.748 0 0 0"/>
  </defs>
  <g fill="none" fill-rule="evenodd" transform="translate(-8 -22)">
    <rect width="70" height="70"/>
    <path fill="#1A1F71" fill-rule="nonzero" d="M10.8177539 31.4143843L8.00041685 22.6135978 9.20393371 22.6135978 10.5503719 26.9487663C10.9213719 28.1367663 11.2411584 29.2070584 11.4728101 30.2391258L11.4990124 30.2391258C11.7425742 29.2198 12.100473 28.1106764 12.4845742 26.9615079L13.9453494 22.6135978 15.1375517 22.6135978 12.0480685 31.4143843 10.8177539 31.4143843zM19.0338854 27.6406337C19.047582 26.9095101 18.7397056 25.7724764 17.4706831 25.7724764 16.3296944 25.7724764 15.8306607 26.8433753 15.7413348 27.6406337L19.0338854 27.6406337zM15.7276382 28.4627685C15.7538404 30.0172404 16.7268966 30.6567461 17.8553798 30.6567461 18.6628854 30.6567461 19.1494135 30.5129483 19.572818 30.3297124L19.7651663 31.1530607C19.367964 31.3350831 18.6890876 31.544409 17.7017393 31.544409 15.7925483 31.544409 14.650964 30.264791 14.650964 28.358409 14.650964 26.452027 15.7538404 24.9503416 17.560009 24.9503416 19.5853236 24.9503416 20.1242562 26.7657124 20.1242562 27.9276225 20.1242562 28.1624315 20.0980539 28.3450607 20.0855483 28.4627685L15.7276382 28.4627685zM21.0082247 27.0653213C21.0082247 26.3214562 20.9957191 25.6819506 20.9576067 25.0934112L21.9443596 25.0934112 21.9830674 26.3348045 22.0336854 26.3348045C22.3159551 25.485973 22.9948315 24.950827 23.7511236 24.950827 23.8785618 24.950827 23.9696742 24.9635685 24.0715056 24.9896584L24.0715056 26.0739056C23.9559775 26.047209 23.8404494 26.0344674 23.6862135 26.0344674 22.893 26.0344674 22.3296517 26.6484899 22.1754157 27.5094562 22.1492135 27.6659955 22.1230112 27.8492315 22.1230112 28.045209L22.1230112 31.4138382 21.0082247 31.4138382 21.0082247 27.0653213z"/>
    <g transform="translate(8 22)">
      <mask id="v_by_visa-b" fill="#fff">
        <use xlink:href="#v_by_visa-a"/>
      </mask>
      <path fill="#1A1F71" fill-rule="nonzero" d="M16.7384719,9.41311011 L17.8675506,9.41311011 L17.8675506,3.09389663 L16.7384719,3.09389663 L16.7384719,9.41311011 Z M17.9943933,1.31857079 C18.0074944,1.7099191 17.7252247,2.02360449 17.276809,2.02360449 C16.8796067,2.02360449 16.5979326,1.7099191 16.5979326,1.31857079 C16.5979326,0.913874157 16.8921124,0.600188764 17.3030112,0.600188764 C17.7252247,0.600188764 17.9943933,0.913874157 17.9943933,1.31857079 L17.9943933,1.31857079 Z" mask="url(#v_by_visa-b)"/>
    </g>
    <g transform="translate(8 22)">
      <mask id="v_by_visa-d" fill="#fff">
        <use xlink:href="#v_by_visa-c"/>
      </mask>
      <path fill="#1A1F71" fill-rule="nonzero" d="M19.3407124,9.41438427 L19.3407124,3.96827191 L18.4688921,3.96827191 L18.4688921,3.0939573 L19.3407124,3.0939573 L19.3407124,2.79362022 C19.3407124,1.90656404 19.5330607,1.09656404 20.0582966,0.586901124 C20.4805101,0.169462921 21.0438584,-0.000424719101 21.5708809,-0.000424719101 C21.9680831,-0.000424719101 22.3128809,0.0911932584 22.530836,0.182811236 L22.377791,1.06986742 C22.2110494,0.991597753 21.9799933,0.927283146 21.6602067,0.927283146 C20.6990607,0.927283146 20.4554989,1.78885618 20.4554989,2.75357528 L20.4554989,3.0939573 L21.953791,3.0939573 L21.953791,3.96827191 L20.4554989,3.96827191 L20.4554989,9.41438427 L19.3407124,9.41438427 Z" mask="url(#v_by_visa-d)"/>
    </g>
    <g transform="translate(8 22)">
      <mask id="v_by_visa-f" fill="#fff">
        <use xlink:href="#v_by_visa-e"/>
      </mask>
      <path fill="#1A1F71" fill-rule="nonzero" d="M23.0663146,9.41311011 L24.1936067,9.41311011 L24.1936067,3.09389663 L23.0663146,3.09389663 L23.0663146,9.41311011 Z M24.3210449,1.31857079 C24.3353371,1.7099191 24.0512809,2.02360449 23.6034607,2.02360449 C23.2062584,2.02360449 22.9239888,1.7099191 22.9239888,1.31857079 C22.9239888,0.913874157 23.2199551,0.600188764 23.6296629,0.600188764 C24.0512809,0.600188764 24.3210449,0.913874157 24.3210449,1.31857079 L24.3210449,1.31857079 Z" mask="url(#v_by_visa-f)"/>
    </g>
    <g transform="translate(8 22)">
      <mask id="v_by_visa-h" fill="#fff">
        <use xlink:href="#v_by_visa-g"/>
      </mask>
      <path fill="#1A1F71" fill-rule="nonzero" d="M29.4864011,5.64063371 C29.4989067,4.90951011 29.1922213,3.7724764 27.9231989,3.7724764 C26.7822101,3.7724764 26.2831764,4.84337528 26.192064,5.64063371 L29.4864011,5.64063371 Z M26.1801539,6.46276854 C26.2063562,8.01724045 27.1794124,8.65674607 28.3078955,8.65674607 C29.1154011,8.65674607 29.6019292,8.51294831 30.0253337,8.32971236 L30.217682,9.15306067 C29.8204798,9.33508315 29.1398169,9.54440899 28.1542551,9.54440899 C26.2444685,9.54440899 25.1034798,8.26479101 25.1034798,6.35840899 C25.1034798,4.45202697 26.2063562,2.95034157 28.0125247,2.95034157 C30.0378393,2.95034157 30.5749854,4.76571236 30.5749854,5.92762247 C30.5749854,6.16243146 30.5505697,6.34506067 30.536873,6.46276854 L26.1801539,6.46276854 Z" mask="url(#v_by_visa-h)"/>
    </g>
    <g transform="translate(8 22)">
      <mask id="v_by_visa-j" fill="#fff">
        <use xlink:href="#v_by_visa-i"/>
      </mask>
      <path fill="#1A1F71" fill-rule="nonzero" d="M35.6897831,5.6667236 C35.6897831,5.52353258 35.6772775,5.32634157 35.6391652,5.18254382 C35.4724236,4.45263371 34.8566708,3.85195955 34.0110528,3.85195955 C32.8456483,3.85195955 32.1536708,4.89555506 32.1536708,6.2928809 C32.1536708,7.57310562 32.7682326,8.63065618 33.9866371,8.63065618 C34.7405472,8.63065618 35.4337157,8.1216 35.6391652,7.25942022 C35.6772775,7.1028809 35.6897831,6.94573483 35.6897831,6.76371236 L35.6897831,5.6667236 Z M36.8188618,0.142948315 L36.8188618,7.78121798 C36.8188618,8.34366742 36.8307719,8.98317303 36.8688843,9.41456629 L35.8571202,9.41456629 L35.8047157,8.31697079 L35.7785135,8.31697079 C35.4337157,9.02139775 34.6780191,9.55715056 33.6644685,9.55715056 C32.1661764,9.55715056 31.012682,8.26479101 31.012682,6.34506067 C31.0001764,4.24209438 32.281109,2.95034157 33.7930978,2.95034157 C34.7405472,2.95034157 35.3825022,3.40782472 35.6635809,3.91566742 L35.6897831,3.91566742 L35.6897831,0.142948315 L36.8188618,0.142948315 Z" mask="url(#v_by_visa-j)"/>
    </g>
    <g transform="translate(8 22)">
      <mask id="v_by_visa-l" fill="#fff">
        <use xlink:href="#v_by_visa-k"/>
      </mask>
      <path fill="#1A1F71" fill-rule="nonzero" d="M42.1606663,6.88075281 C42.1606663,7.02333708 42.1868685,7.16834831 42.2130708,7.29879775 C42.4304303,8.09423596 43.0831045,8.64273034 43.9037112,8.64273034 C45.0834079,8.64273034 45.7872955,7.66344944 45.7872955,6.21455056 C45.7872955,4.9482809 45.147127,3.86403371 43.9424191,3.86403371 C43.1742169,3.86403371 42.4566326,4.39917978 42.2255764,5.27531461 C42.1993742,5.4051573 42.1606663,5.56169663 42.1606663,5.74553933 L42.1606663,6.88075281 Z M40.9946663,9.41450562 C41.0208685,8.98311236 41.0458798,8.343 41.0458798,7.7811573 L41.0458798,0.143494382 L42.1606663,0.143494382 L42.1606663,4.11279775 L42.1868685,4.11279775 C42.5840708,3.40776404 43.3016551,2.9502809 44.301509,2.9502809 C45.8397,2.9502809 46.9282843,4.25720225 46.9163742,6.1757191 C46.9163742,8.43461798 45.519318,9.55648315 44.1347674,9.55648315 C43.2373404,9.55648315 42.5191607,9.20457303 42.0588348,8.36908989 L42.0207225,8.36908989 L41.968318,9.41450562 L40.9946663,9.41450562 Z" mask="url(#v_by_visa-l)"/>
    </g>
    <g transform="translate(8 22)">
      <mask id="v_by_visa-n" fill="#fff">
        <use xlink:href="#v_by_visa-m"/>
      </mask>
      <path fill="#1A1F71" fill-rule="nonzero" d="M48.1465697,3.0939573 L49.504918,6.82845169 C49.6472438,7.24649663 49.8002888,7.74220449 49.9021202,8.12141798 L49.9283225,8.12141798 C50.0444461,7.74220449 50.1718843,7.2592382 50.3255247,6.8023618 L51.5570303,3.0939573 L52.7486371,3.0939573 L51.0562101,7.59901348 C50.2487045,9.76629438 49.6972663,10.8760247 48.929064,11.5555753 C48.3782213,12.0512831 47.8261876,12.2472607 47.5445135,12.2994404 L47.2634348,11.3335079 C47.5445135,11.2418899 47.9155135,11.0586539 48.2495921,10.7716652 C48.5574685,10.5235079 48.9409742,10.079373 49.1988281,9.49204719 C49.2500416,9.37494607 49.2875584,9.28332809 49.2875584,9.21840674 C49.2875584,9.15287865 49.2613562,9.06126067 49.2107382,8.91746292 L46.9168506,3.0939573 L48.1465697,3.0939573 Z" mask="url(#v_by_visa-n)"/>
    </g>
    <g transform="translate(8 22)">
      <mask id="v_by_visa-p" fill="#fff">
        <use xlink:href="#v_by_visa-o"/>
      </mask>
      <path fill="#1A1F71" fill-rule="nonzero" d="M18.7062607,13.7267393 L15.2874629,22.5354135 L13.9046989,15.0457955 C13.7445079,14.2109191 13.1037438,13.7267393 12.3903281,13.7267393 L6.80031685,13.7267393 L6.72468764,14.1010989 C7.87044045,14.3583573 9.17519326,14.7648742 9.96483371,15.2011213 C10.4471933,15.4711213 10.5853506,15.7028966 10.742564,16.340582 L13.3639798,26.6679303 L16.8381596,26.6679303 L22.1601933,13.7267393 L18.7062607,13.7267393 Z" mask="url(#v_by_visa-p)"/>
    </g>
    <g transform="translate(8 22)">
      <mask id="v_by_visa-r" fill="#fff">
        <use xlink:href="#v_by_visa-q"/>
      </mask>
      <polygon fill="#1A1F71" fill-rule="nonzero" points="23.568 13.727 20.853 26.668 24.138 26.668 26.85 13.727" mask="url(#v_by_visa-r)"/>
    </g>
    <g transform="translate(8 22)">
      <mask id="v_by_visa-t" fill="#fff">
        <use xlink:href="#v_by_visa-s"/>
      </mask>
      <path fill="#1A1F71" fill-rule="nonzero" d="M31.1618562,17.3127034 C31.1725753,16.8497596 31.6066989,16.3558719 32.5553393,16.2272427 C33.0281708,16.1641416 34.3233955,16.1174225 35.7972719,16.8042539 L36.3731258,14.064209 C35.5834854,13.7705461 34.5621933,13.4871978 33.2997213,13.4871978 C30.0500472,13.4871978 27.7674742,15.2485685 27.746036,17.7677596 C27.7293618,19.628636 29.3801034,20.6704112 30.6229236,21.2923213 C31.9026652,21.9233326 32.3338112,22.3280292 32.3260697,22.8983663 C32.3201146,23.7684337 31.3047775,24.1482539 30.3626876,24.1634225 C28.708373,24.1882989 27.7508,23.7083663 26.9855753,23.3473551 L26.3924517,26.1844787 C27.1576764,26.5418494 28.5761708,26.8561416 30.0482607,26.8719169 C33.4932607,26.8719169 35.752609,25.1305685 35.7651146,22.4439169 C35.7788112,19.0249281 31.1296989,18.8386584 31.1618562,17.3127034" mask="url(#v_by_visa-t)"/>
    </g>
    <g transform="translate(8 22)">
      <mask id="v_by_visa-v" fill="#fff">
        <use xlink:href="#v_by_visa-u"/>
      </mask>
      <path fill="#1A1F71" fill-rule="nonzero" d="M41.9216303,13.7267393 C41.2903944,13.7267393 40.7580124,14.0986719 40.5215966,14.6768966 L35.5937876,26.6679303 L39.0447427,26.6679303 L39.7301697,24.7354584 L43.9368213,24.7354584 L44.3310461,26.6679303 L47.3764618,26.6679303 L44.7276528,13.7267393 L41.9216303,13.7267393 Z M40.6740461,22.0827843 L42.4212596,17.223391 L43.4032483,22.0827843 L40.6740461,22.0827843 Z" mask="url(#v_by_visa-v)"/>
    </g>
  </g>
</svg>

<svg xmlns="http://www.w3.org/2000/svg" xmlns:xlink="http://www.w3.org/1999/xlink" width="53" height="27"><defs><path id="a" d="M0 26.872h52.748V0H0z"/><path id="c" d="M0 26.872h52.748V0H0z"/><path id="e" d="M0 26.872h52.748V0H0z"/><path id="g" d="M0 26.872h52.748V0H0z"/><path id="i" d="M0 26.872h52.748V0H0z"/><path id="k" d="M0 26.872h52.748V0H0z"/><path id="m" d="M0 26.872h52.748V0H0z"/><path id="o" d="M0 26.872h52.748V0H0z"/><path id="q" d="M0 26.872h52.748V0H0z"/><path id="s" d="M0 26.872h52.748V0H0z"/><path id="u" d="M0 26.872h52.748V0H0z"/></defs><g fill="none" fill-rule="evenodd"><path d="M-8-22h70v70H-8z"/><path fill="#1A1F71" fill-rule="nonzero" d="M2.818 9.414L0 .614h1.204L2.55 4.949c.371 1.188.691 2.258.923 3.29h.026c.244-1.02.601-2.128.986-3.277L5.945.614h1.193l-3.09 8.8h-1.23zm8.216-3.773c.014-.731-.294-1.869-1.563-1.869-1.141 0-1.64 1.071-1.73 1.869h3.293zm-3.306.822c.026 1.554.999 2.194 2.127 2.194.808 0 1.294-.144 1.718-.327l.192.823c-.397.182-1.076.391-2.063.391-1.91 0-3.051-1.28-3.051-3.186S7.754 2.95 9.56 2.95c2.025 0 2.564 1.816 2.564 2.978 0 .234-.026.417-.038.535H7.728zm5.28-1.398c0-.744-.012-1.383-.05-1.972h.986l.04 1.242h.05c.282-.849.96-1.384 1.717-1.384a1.2 1.2 0 0 1 .32.039v1.084a1.637 1.637 0 0 0-.385-.04c-.793 0-1.356.614-1.51 1.475-.027.157-.053.34-.053.536v3.369h-1.115V5.065z"/><mask id="b" fill="#fff"><use xlink:href="#a"/></mask><path fill="#1A1F71" fill-rule="nonzero" d="M16.738 9.413h1.13v-6.32h-1.13v6.32zm1.256-8.094c.013.39-.269.705-.717.705-.397 0-.68-.314-.68-.705 0-.405.295-.719.706-.719.422 0 .691.314.691.719z" mask="url(#b)"/><mask id="d" fill="#fff"><use xlink:href="#c"/></mask><path fill="#1A1F71" fill-rule="nonzero" d="M19.34 9.414V3.968h-.871v-.874h.872v-.3c0-.887.192-1.697.717-2.207.423-.418.986-.587 1.513-.587.397 0 .742.091.96.183l-.153.887a1.663 1.663 0 0 0-.718-.143c-.96 0-1.205.862-1.205 1.827v.34h1.499v.874h-1.499v5.446h-1.114z" mask="url(#d)"/><mask id="f" fill="#fff"><use xlink:href="#e"/></mask><path fill="#1A1F71" fill-rule="nonzero" d="M23.066 9.413h1.128v-6.32h-1.128v6.32zm1.255-8.094c.014.39-.27.705-.718.705-.397 0-.679-.314-.679-.705 0-.405.296-.719.706-.719.421 0 .691.314.691.719z" mask="url(#f)"/><mask id="h" fill="#fff"><use xlink:href="#g"/></mask><path fill="#1A1F71" fill-rule="nonzero" d="M29.486 5.64c.013-.73-.294-1.868-1.563-1.868-1.14 0-1.64 1.071-1.73 1.869h3.293zm-3.306.823c.026 1.554 1 2.194 2.128 2.194.807 0 1.294-.144 1.717-.327l.193.823c-.398.182-1.078.391-2.064.391-1.91 0-3.05-1.28-3.05-3.186s1.102-3.408 2.909-3.408c2.025 0 2.562 1.816 2.562 2.978 0 .234-.024.417-.038.535H26.18z" mask="url(#h)"/><mask id="j" fill="#fff"><use xlink:href="#i"/></mask><path fill="#1A1F71" fill-rule="nonzero" d="M35.69 5.667c0-.143-.013-.34-.05-.484-.168-.73-.783-1.331-1.629-1.331-1.165 0-1.857 1.044-1.857 2.44 0 1.281.614 2.339 1.833 2.339.754 0 1.447-.51 1.652-1.372.038-.156.05-.313.05-.495V5.667zM36.819.143V7.78c0 .563.012 1.202.05 1.634h-1.012l-.052-1.098h-.026c-.345.704-1.101 1.24-2.115 1.24-1.498 0-2.651-1.292-2.651-3.212C31 4.242 32.28 2.95 33.793 2.95c.948 0 1.59.458 1.87.966h.027V.143h1.129z" mask="url(#j)"/><mask id="l" fill="#fff"><use xlink:href="#k"/></mask><path fill="#1A1F71" fill-rule="nonzero" d="M42.16 6.88c0 .143.027.288.053.419.217.795.87 1.344 1.69 1.344 1.18 0 1.884-.98 1.884-2.428 0-1.267-.64-2.351-1.845-2.351-.768 0-1.485.535-1.716 1.411-.027.13-.065.287-.065.47v1.136zm-1.165 2.535c.026-.432.05-1.072.05-1.634V.143h1.116v3.97h.026c.397-.705 1.115-1.163 2.115-1.163 1.538 0 2.626 1.307 2.614 3.226 0 2.259-1.397 3.38-2.781 3.38-.898 0-1.616-.351-2.076-1.187h-.038l-.053 1.046h-.973z" mask="url(#l)"/><mask id="n" fill="#fff"><use xlink:href="#m"/></mask><path fill="#1A1F71" fill-rule="nonzero" d="M48.147 3.094l1.358 3.734c.142.418.295.914.397 1.293h.026c.116-.379.244-.862.398-1.319l1.231-3.708h1.192l-1.693 4.505c-.807 2.167-1.359 3.277-2.127 3.957-.55.495-1.103.691-1.384.743l-.282-.965c.282-.092.653-.275.987-.562.307-.248.691-.693.949-1.28.051-.117.089-.209.089-.274a1.04 1.04 0 0 0-.077-.3l-2.294-5.824h1.23z" mask="url(#n)"/><mask id="p" fill="#fff"><use xlink:href="#o"/></mask><path fill="#1A1F71" fill-rule="nonzero" d="M18.706 13.727l-3.419 8.808-1.382-7.49c-.16-.834-.801-1.318-1.515-1.318H6.8l-.075.374c1.145.257 2.45.664 3.24 1.1.482.27.62.502.778 1.14l2.621 10.327h3.474l5.322-12.941h-3.454z" mask="url(#p)"/><mask id="r" fill="#fff"><use xlink:href="#q"/></mask><path fill="#1A1F71" fill-rule="nonzero" mask="url(#r)" d="M23.568 13.727l-2.715 12.941h3.285l2.712-12.941z"/><mask id="t" fill="#fff"><use xlink:href="#s"/></mask><path fill="#1A1F71" fill-rule="nonzero" d="M31.162 17.313c.01-.463.445-.957 1.393-1.086.473-.063 1.768-.11 3.242.577l.576-2.74a8.66 8.66 0 0 0-3.073-.577c-3.25 0-5.533 1.762-5.554 4.28-.017 1.862 1.634 2.903 2.877 3.525 1.28.631 1.71 1.036 1.703 1.606-.006.87-1.021 1.25-1.963 1.265-1.655.025-2.612-.455-3.377-.816l-.594 2.837c.766.358 2.184.672 3.656.688 3.445 0 5.705-1.741 5.717-4.428.014-3.42-4.635-3.605-4.603-5.131" mask="url(#t)"/><mask id="v" fill="#fff"><use xlink:href="#u"/></mask><path fill="#1A1F71" fill-rule="nonzero" d="M41.922 13.727c-.632 0-1.164.372-1.4.95l-4.928 11.99h3.45l.686-1.932h4.207l.394 1.933h3.045l-2.648-12.941h-2.806zm-1.248 8.356l1.747-4.86.982 4.86h-2.729z" mask="url(#v)"/></g></svg>
